public/assets/images/field-c06.svg

<svg width="18" height="18" viewBox="0 0 18 18" fill="none" xmlns="http://www.w3.org/2000/svg">
<path d="M11.2044 17.5455L11.2033 17.5455C10.5479 17.5529 9.89749 17.4298 9.29004 17.1835C8.68268 16.9372 8.13035 16.5726 7.66519 16.1109C7.66512 16.1109 7.66506 16.1108 7.66499 16.1107L1.75281 10.1985L1.75188 10.1976C-0.268664 8.19392 -0.153272 4.77567 2.04469 2.57709C2.0449 2.57689 2.0451 2.57668 2.0453 2.57648L4.09158 0.552699L4.09158 0.552704L4.09308 0.551202C4.16856 0.475537 4.25822 0.415505 4.35693 0.374545C4.45564 0.333584 4.56146 0.3125 4.66833 0.3125C4.77521 0.3125 4.88103 0.333584 4.97974 0.374545C5.07845 0.415505 5.16811 0.475537 5.24358 0.551202L5.2436 0.551221L9.0506 4.36722L9.05114 4.36776C9.12681 4.44324 9.18684 4.5329 9.2278 4.63161C9.26876 4.73032 9.28984 4.83614 9.28984 4.94301C9.28984 5.04988 9.26876 5.1557 9.2278 5.25442C9.18687 5.35304 9.12691 5.44264 9.05133 5.51807C9.05127 5.51813 9.0512 5.5182 9.05114 5.51826L7.28771 7.26819L7.06487 7.48933L7.28704 7.71115L10.1535 10.5732L10.3745 10.7938L10.5953 10.573L12.3455 8.82283C12.3455 8.82274 12.3456 8.82265 12.3457 8.82256C12.498 8.6709 12.7042 8.58575 12.9191 8.58575C13.134 8.58575 13.3402 8.6709 13.4924 8.82256C13.4925 8.82265 13.4926 8.82274 13.4927 8.82283L17.3125 12.6426C17.3126 12.6427 17.3127 12.6428 17.3128 12.6429C17.4644 12.7952 17.5496 13.0013 17.5496 13.2163C17.5496 13.4312 17.4644 13.6373 17.3128 13.7896C17.3127 13.7897 17.3126 13.7898 17.3125 13.7899L15.2834 15.819L15.2834 15.819L15.2818 15.8206C14.2048 16.9131 12.7384 17.5335 11.2044 17.5455ZM2.90719 9.04631L2.90819 9.04731L8.81219 14.9603L8.81236 14.9605C10.223 16.3711 12.6139 16.1909 14.1368 14.668L15.3653 13.4395L15.5849 13.2198L15.3666 12.9989L13.1436 10.7489L12.923 10.5255L12.7006 10.7473L10.9501 12.4933L10.9496 12.4938C10.8741 12.5695 10.7845 12.6295 10.6857 12.6705C10.587 12.7114 10.4812 12.7325 10.3743 12.7325C10.2675 12.7325 10.1616 12.7114 10.0629 12.6705C9.96422 12.6295 9.87456 12.5695 9.79908 12.4938L9.7988 12.4935L5.3438 8.03854L5.34326 8.038C5.26781 7.96292 5.20794 7.87367 5.16709 7.77538C5.12624 7.67709 5.1052 7.5717 5.1052 7.46526C5.1052 7.35882 5.12624 7.25343 5.16709 7.15514C5.20794 7.05685 5.26781 6.9676 5.34326 6.89252L5.3438 6.89198L7.0943 5.14148L7.3164 4.91939L7.09318 4.69842L4.86568 2.49342L4.6439 2.27389L4.42405 2.49535L3.20086 3.72754C3.20072 3.72768 3.20058 3.72782 3.20044 3.72797C1.67721 5.2516 1.49891 7.62299 2.90719 9.04631Z" fill="#4F66EE" stroke="white" stroke-width="0.625"/>
</svg>

<svg width="18" height="18" fill="none" xmlns="http://www.w3.org/2000/svg"><path d="M11.204 17.546h0a4.943 4.943 0 01-3.539-1.435s0 0 0 0l-5.912-5.913h-.001c-2.02-2.004-1.905-5.422.293-7.62v-.002L4.092.553h0L4.093.55a.813.813 0 011.15 0h0l3.808 3.816h0a.813.813 0 010 1.151s0 0 0 0l-1.763 1.75-.223.221.222.222 2.866 2.862.221.22.221-.22 1.75-1.75s0 0 0 0a.813.813 0 011.147 0s0 0 0 0l3.82 3.82s0 0 0 0a.813.813 0 010 1.147s0 0 0 0l-2.029 2.029h0l-.001.002a5.79 5.79 0 01-4.078 1.725zm-8.297-8.5l.001.001 5.904 5.913h0c1.411 1.411 3.802 1.23 5.325-.292l1.228-1.228.22-.22-.218-.221-2.223-2.25-.221-.224-.222.222-1.75 1.746h-.001a.812.812 0 01-1.15 0h-.001L5.344 8.04v-.001a.808.808 0 010-1.145v-.001l1.75-1.75.222-.223-.223-.22-2.227-2.206-.222-.22-.22.222-1.223 1.233s0 0 0 0c-1.524 1.524-1.702 3.895-.294 5.318z" fill="#4F66EE" stroke="#fff" stroke-width=".625"/></svg>
